packages/form-js-viewer/src/render/components/icons/Button.svg

<svg xmlns="http://www.w3.org/2000/svg" width="54" height="54" viewBox="0 0 54 54" fill="currentcolor">
  <path fill-rule="evenodd" d="M45,17 C46.6568542,17 48,18.3431458 48,20 L48,34 C48,35.6568542 46.6568542,37 45,37 L9,37 C7.34314575,37 6,35.6568542 6,34 L6,20 C6,18.3431458 7.34314575,17 9,17 L45,17 Z M36,25.8888889 L18,25.8888889 L18,28.1111111 L36,28.1111111 L36,25.8888889 Z"/>
</svg>

<svg xmlns="http://www.w3.org/2000/svg" width="54" height="54" fill="currentcolor"><path fill-rule="evenodd" d="M45 17a3 3 0 0 1 3 3v14a3 3 0 0 1-3 3H9a3 3 0 0 1-3-3V20a3 3 0 0 1 3-3h36zm-9 8.889H18v2.222h18v-2.222z"/></svg>
